icons/file_type_light_todo.svg

<svg xmlns="http://www.w3.org/2000/svg" viewBox="0 0 32 32"><path d="m17.866 15.509-.98.98-.98-.978-1.957-1.957.977-.977 1.957 1.957 4.891-4.894.98.977-4.888 4.892z" style="fill:green"/><path d="M14.454 21.443h8.303v1.383h-8.303z" style="fill:#c00000"/><path d="M2 5.74v23.709h24.909V5.74Zm23.477 22.449-22.083-.058.023-20.974h22.077ZM6.151 10.951v5.534h5.534v-5.534ZM10.3 15.1H7.534v-2.766H10.3Zm-4.151 4.22v5.534h5.534v-5.531Zm4.151 4.154H7.534v-2.765H10.3ZM30 2.551V26.24h-1.431L28.549 4l-22.4-.029v-1.42H30Z"/></svg>

<svg xmlns="http://www.w3.org/2000/svg" viewBox="0 0 32 32"><title>file_type_light_todo</title><polygon points="17.866 15.509 17.866 15.509 16.886 16.489 15.906 15.511 15.906 15.511 13.949 13.554 14.926 12.577 16.883 14.534 21.774 9.64 22.754 10.617 17.866 15.509" style="fill:green"/><rect x="14.454" y="21.443" width="8.303" height="1.383" style="fill:#c00000"/><path d="M2,5.74V29.449H26.909V5.74ZM25.477,28.189,3.394,28.131,3.417,7.157H25.494ZM6.151,10.951v5.534h5.534V10.951ZM10.3,15.1H7.534V12.334H10.3Zm-4.151,4.22v5.534h5.534V19.323ZM10.3,23.474H7.534V20.709H10.3ZM30,2.551V26.24H28.569L28.549,4l-22.4-.029V2.551H30Z"/></svg>
